svg/300/sharp/photo_size_select_large-fill.svg

<svg xmlns="http://www.w3.org/2000/svg" width="48" height="48" viewBox="0 -960 960 960"><path d="M140.001-140.001v-533.536h533.536v533.536H140.001Zm92.385-87.615h352.228L464.769-386.384l-91.626 125.461-56.681-78.307-84.076 111.614Zm542.229-39.615v-82.23h45.384v82.23h-45.384Zm0-172.154v-82.23h45.384v82.23h-45.384Zm0-171.154v-82.23h45.384v82.23h-45.384ZM271.077-774.615v-45.384h82.231v45.384h-82.231Zm168.308 0v-45.384h82.23v45.384h-82.23Zm167.307 0v-45.384h82.231v45.384h-82.231Zm-466.691 0v-45.384h45.384v45.384h-45.384Zm679.998 0h-45.384v-45.384h45.384v45.384Zm-45.384 634.614v-45.384h45.384v45.384h-45.384Z"/></svg>

<svg xmlns="http://www.w3.org/2000/svg" width="48" height="48" viewBox="0 -960 960 960"><path d="M140-140v-533.54h533.54V-140H140Zm92.39-87.62h352.22L464.77-386.38l-91.63 125.46-56.68-78.31-84.07 111.61Zm542.22-39.61v-82.23H820v82.23h-45.39Zm0-172.15v-82.24H820v82.24h-45.39Zm0-171.16v-82.23H820v82.23h-45.39ZM271.08-774.61V-820h82.23v45.39h-82.23Zm168.3 0V-820h82.24v45.39h-82.24Zm167.31 0V-820h82.23v45.39h-82.23Zm-466.69 0V-820h45.39v45.39H140Zm680 0h-45.39V-820H820v45.39ZM774.61-140v-45.39H820V-140h-45.39Z"/></svg>
